!!!OTL: Des Pfalzgrafen Töchterlein (51a)
!!!id: T0186V
**kern
*clefG2
*k[f#c#]
*D:
*M2/4
8r
{8a
8a
8a
=2
8b
8b
8a
8g
=3
8f#}
=4
{8a
8a
8a
=5
8b
8b
8a
8g
=6
8f#}
=7
{8a
8a
8a
=8
4dd
8cc#
8b
=9
4a
8b
8cc#
=10
4dd}
4r
==
*-
!!!minrhy: 8
!!!meters: 2/4 ]  ZZ[3
!!!cut1: Des Pfalzgrafen Töchterlein (51a)
!!!cut2: Melodie I, Variante
!!!cut3: S. 159
!!!reg: Luxemburg
!!!trd: Singendes Volk, Esch-Alzette 1937 posth.
!!!rhy1: 0XXX  XXXX  X
!!!rhy2: XXX  XXXX  X
!!!key: T0186V 08  D 2/4 ]  ZZ[3
!!!mod: SECHSTONSKALA DUR ?]  AMBITUS[6b
!!!kad: 33+1
!!!akz: 63_63_+15+1_
!!!fot: 'a__av_as"
!!!for: 'a__aw_b__
!!!fok: '\__\__~a_
!! PHRAS[AUFTAKTIG]
!!!fkt: Liebeslieder
!!!bem: Reuland, 1908
!! THILL, Mathias:
!! PR[21] 2K[3] 2G[18] 3K[0] 3G[6] 4A[9] 4Ü[0] 5A[0] 6K[0] 6G[0]
!! 7K[0] 7G[0] 8A[0] MEHR[0] SI[36] ABS[33] SR[21] SP[15]
!! ST[8] 2k[0] 2g[27] 3k[3] 3g[0] 4d[9] 4ü[0] 5d[3] 6k[0] 6g[0]
!! 7k[0] 7g[0] 8d[0] mehr[0] si[42] dm[-6] sr[27] sp[15]
!! 1F[11] 2F[67] 3F[6] 4F[0] LF[0] 2P[0] 3P[17] 4P[0] TRI[0] DF[4] AB[36]
!! TF[0] U3K[0] U3[0] U4[0] U4Ü[0] U5[0] U6K[0] U6[0] U7K[0] U7[0]
!! N1[6] N2K[0] N2[9] N3K[0] N3[15] N4[3] N4Ü[0] N5[26] N6K[0] N6[24]
!!!n7k: 0] N7[15] O1[3] O2K[0] O2[0] O3K[0] O3[0] HÖ[0
